**kern	**kern	**dynam
*part1	*part1	*part1
*staff2	*staff1	*
*I"Piano	*	*
*clefF4	*clefG2	*
*k[f#c#g#d#]	*k[f#c#g#d#]	*
=1	=1	=1
*^	*	*
*	*^	*	*
[2D#	[2FF#	4BB/	2A 2d# 2b	<
.	.	[4BB/	.	.
*v	*v	*v	*	*
=	=	=
2FF#_ 2BB_ 2D#_	4d#: 4a: 4dd#: 4ff#:	[
.	8d#L 8a 8dd#	.
.	8d#J 8a 8cc#	.
=	=	=
4FF#] 4BB] 4D#]	4d# 4a 4b	>
4FF# 4BB	4r	.
=	=	=
*^	*	*
4r	2EE 2BB	(4g# 4b 4ee	] pp
4A 4c#	.	4f#) 4cc# 4ff#	.
=	=	=	=
4r	2EE 2E	(4e 4a 4cc#	.
4A 4c#	.	4e) 4a 4ee	.
*v	*v	*	*
=	=	=
[2EE [2BB	4f# 4a 4dd#	.
.	8eL 8a 8cc#	.
.	8d#J 8a 8b	.
=	=	=
4EE] 4BB]	2d# 2a 2b	.
[4BB	.	.
=	=	=
*-	*-	*-
!!!system-decoration: {(s1,s2)}
